X: 129
T: the Banshee's Cry
R: air
%S: s:4 b:16(4+4+4+4)
Q: "Slow"
B: O'Neill's 1850 #129
O: J.O'Neill
Z: 1997 henrik.norbeck@mailbox.swipnet.se
M: 3/4
L: 1/8
K: C
!p!c \
| e2g2ga | g3ec2 | e2g2 (g/a/b) | a3ge2 ||
| c'2d'2c'2 | _b3a (ag) | e2edc2 | d3BG2 |]
|| c2(c>dec) | (d>cdefd) | (c>Bcdec) | (fdecdB) ||
| c2(cdec) | e2g2Hc'b | (agfe)dd | d3c c2 |]
